src/images/icons/notification-blank.svg

<?xml version="1.0" encoding="UTF-8"?>
<svg width="64px" height="80px" viewBox="0 0 64 80" version="1.1" xmlns="http://www.w3.org/2000/svg" xmlns:xlink="http://www.w3.org/1999/xlink">
    <!-- Generator: Sketch 49.3 (51167) - http://www.bohemiancoding.com/sketch -->
    <title>notification-blank</title>
    <desc>Created with Sketch.</desc>
    <g id="Marvel" stroke="none" stroke-width="1" fill="none" fill-rule="evenodd">
        <g id="Marvel_Modal_Notifications_Empty" transform="translate(-816.000000, -314.000000)" fill="#C7CCD1" fill-rule="nonzero">
            <g id="Chat" transform="translate(369.000000, 7.000000)">
                <g id="Чат" transform="translate(0.000000, 17.000000)">
                    <g id="Group" transform="translate(247.000000, 290.000000)">
                        <g id="notification-blank" transform="translate(200.000000, 0.000000)">
                            <path d="M60.9189062,59.070625 C59.2275,57.524375 58.2573437,55.3320312 58.2573437,53.0557812 L58.2573437,37.4998438 C58.2573437,36.6370312 57.5578125,35.9373437 56.6948437,35.9373437 C55.831875,35.9373437 55.1323437,36.6370312 55.1323437,37.4998438 L55.1323437,53.0557812 C55.1323437,56.2073438 56.4729687,59.2403125 58.8104687,61.3771875 C59.650625,62.1451562 60.1323437,63.2378125 60.1323437,64.3753125 C60.1323437,66.6151562 58.31,68.4375 56.0701562,68.4375 L7.3196875,68.4375 C5.07984375,68.4375 3.2575,66.6151562 3.2575,64.3753125 C3.2575,63.2379688 3.73921875,62.1453125 4.579375,61.3771875 C6.916875,59.2403125 8.2575,56.2073438 8.2575,53.0557812 L8.2575,34.9998437 C8.2575,22.0764062 18.7715625,11.5623437 31.695,11.5623437 C35.249375,11.5623437 38.7503125,12.370625 41.9209375,13.9079687 C40.8189062,15.6782812 40.1798437,17.7654688 40.1798437,19.9998438 C40.1798437,26.3754687 45.3667187,31.5623437 51.7423437,31.5623437 C58.1179687,31.5623437 63.3048437,26.3754687 63.3048437,19.9998438 C63.3048437,13.6242187 58.1179687,8.43734375 51.7423437,8.43734375 C48.754375,8.43734375 46.0273437,9.57671875 43.973125,11.44375 C41.6440625,10.2289062 39.1454687,9.36984375 36.5653125,8.89 C37.1409375,7.9915625 37.47625,6.925 37.47625,5.78109375 C37.47625,2.5934375 34.8828125,0 31.695,0 C28.5071875,0 25.91375,2.5934375 25.91375,5.78109375 C25.91375,6.92375 26.2482812,7.9890625 26.8226562,8.88703125 C14.4951562,11.1815625 5.1325,22.0171875 5.1325,34.9998437 L5.1325,53.0557812 C5.1325,55.3320312 4.1625,57.524375 2.4709375,59.070625 C0.98484375,60.4290625 0.1325,62.3625 0.1325,64.3751563 C0.1325,68.338125 3.35671875,71.5623437 7.3196875,71.5623437 L21.8178125,71.5623437 C22.5703125,76.3367187 26.7125,79.9998437 31.695,79.9998437 C36.6775,79.9998437 40.8196875,76.3367187 41.5721875,71.5623437 L56.0703125,71.5623437 C60.0332813,71.5623437 63.2575,68.338125 63.2575,64.3751563 C63.2575,62.3625 62.4051562,60.4290625 60.9189062,59.070625 Z M51.7421875,11.5623437 C56.3946875,11.5623437 60.1796875,15.3475 60.1796875,19.9998437 C60.1796875,24.6521875 56.3946875,28.4373437 51.7421875,28.4373437 C47.0896875,28.4373437 43.3046875,24.6521875 43.3046875,19.9998437 C43.3046875,15.3475 47.0896875,11.5623437 51.7421875,11.5623437 Z M31.695,3.12484375 C33.1596875,3.12484375 34.35125,4.31640625 34.35125,5.7809375 C34.35125,7.245625 33.1596875,8.4371875 31.695,8.4371875 C30.2303125,8.4371875 29.03875,7.245625 29.03875,5.7809375 C29.03875,4.31640625 30.2303125,3.12484375 31.695,3.12484375 Z M31.695,76.8748437 C28.4417188,76.8748437 25.7109375,74.6026562 25.00125,71.5623437 L38.38875,71.5623437 C37.6790625,74.6026562 34.9482813,76.8748437 31.695,76.8748437 Z" id="Shape"></path>
                            <path d="M14.195,33.4048437 C13.3320312,33.4048437 12.6325,34.1045313 12.6325,34.9673437 L12.6325,34.9998437 C12.6325,35.8626562 13.3320312,36.5623437 14.195,36.5623437 C15.0579688,36.5623437 15.7575,35.8626562 15.7575,34.9998437 L15.7575,34.9673437 C15.7575,34.1045313 15.0579688,33.4048437 14.195,33.4048437 Z" id="Shape"></path>
                            <path d="M31.695,15.9373438 C24.0276562,15.9373438 17.1371875,20.4979687 14.1409375,27.5564063 C13.80375,28.350625 14.174375,29.2679688 14.9685938,29.6051563 C15.1678125,29.6896875 15.3748438,29.7298438 15.5784375,29.7298438 C16.1865625,29.7298438 16.7648437,29.3725 17.0175,28.7775 C19.5228125,22.8757812 25.2840625,19.0623438 31.695,19.0623438 C32.5579688,19.0623438 33.2575,18.3626563 33.2575,17.4998438 C33.2575,16.6370313 32.5579687,15.9373438 31.695,15.9373438 Z" id="Shape"></path>
                            <path d="M52.2929688,14.9364062 C51.709375,14.6951562 51.0371875,14.8282812 50.5901562,15.2751562 L48.7932812,17.0720312 C48.183125,17.6821875 48.183125,18.6715625 48.7932812,19.281875 C49.1579687,19.6464062 49.6584375,19.7935937 50.1325,19.721875 L50.1325,22.551875 C50.1325,23.4146875 50.8320312,24.114375 51.695,24.114375 C52.5579688,24.114375 53.2575,23.4146875 53.2575,22.551875 L53.2575,16.38 C53.2575,15.7479687 52.8767187,15.1782812 52.2929688,14.9364062 Z" id="Shape"></path>
                        </g>
                    </g>
                </g>
            </g>
        </g>
    </g>
</svg>

<svg width="64" height="80" viewBox="0 0 64 80" xmlns="http://www.w3.org/2000/svg">
    <title>
        notification-blank
    </title>
    <g fill="#C7CCD1" fill-rule="nonzero">
        <path d="M60.919 59.07a8.174 8.174 0 0 1-2.662-6.014V37.5a1.563 1.563 0 0 0-3.125 0v15.556c0 3.151 1.341 6.184 3.678 8.321a4.071 4.071 0 0 1 1.322 2.998 4.067 4.067 0 0 1-4.062 4.063H7.32a4.067 4.067 0 0 1-4.063-4.063c0-1.137.482-2.23 1.322-2.998a11.306 11.306 0 0 0 3.679-8.321V35c0-12.924 10.514-23.438 23.437-23.438 3.554 0 7.055.809 10.226 2.346A11.491 11.491 0 0 0 40.18 20c0 6.375 5.187 11.562 11.562 11.562 6.376 0 11.563-5.187 11.563-11.562 0-6.376-5.187-11.563-11.563-11.563-2.988 0-5.715 1.14-7.769 3.007a26.495 26.495 0 0 0-7.408-2.554c.576-.898.911-1.965.911-3.109A5.788 5.788 0 0 0 31.695 0a5.788 5.788 0 0 0-5.781 5.781c0 1.143.334 2.208.909 3.106C14.495 11.182 5.133 22.017 5.133 35v18.056c0 2.276-.97 4.468-2.662 6.015a7.203 7.203 0 0 0-2.339 5.304c0 3.963 3.225 7.187 7.188 7.187h14.498C22.57 76.337 26.712 80 31.695 80c4.983 0 9.125-3.663 9.877-8.438H56.07c3.963 0 7.188-3.224 7.188-7.187a7.203 7.203 0 0 0-2.34-5.304zm-9.177-47.508c4.653 0 8.438 3.786 8.438 8.438 0 4.652-3.785 8.437-8.438 8.437-4.652 0-8.437-3.785-8.437-8.437 0-4.652 3.785-8.438 8.437-8.438zM31.695 3.125a2.66 2.66 0 0 1 2.656 2.656 2.66 2.66 0 0 1-2.656 2.656 2.66 2.66 0 0 1-2.656-2.656 2.66 2.66 0 0 1 2.656-2.656zm0 73.75c-3.253 0-5.984-2.272-6.694-5.313H38.39c-.71 3.04-3.44 5.313-6.694 5.313z"/>
        <path d="M14.195 33.405c-.863 0-1.563.7-1.563 1.562V35a1.563 1.563 0 0 0 3.126 0v-.033c0-.862-.7-1.562-1.563-1.562z"/>
        <path d="M31.695 15.937a19.04 19.04 0 0 0-17.554 11.62 1.563 1.563 0 0 0 2.876 1.22 15.92 15.92 0 0 1 14.678-9.715 1.563 1.563 0 0 0 0-3.125z"/>
        <path d="M52.293 14.936a1.564 1.564 0 0 0-1.703.34l-1.797 1.796a1.563 1.563 0 0 0 1.34 2.65v2.83a1.563 1.563 0 0 0 3.124 0V16.38c0-.632-.38-1.202-.964-1.444z"/>
    </g>
</svg>
